X: 165
T: Reel de T\'i Jean
N: Closely related to the tune known as "Liberty".
C:
B: NEFR #165
R: reel
Z: 2012 John Chambers <jc:trillian.mit.edu>
M: C|
L: 1/8
K: D
ag |\
"D"f2 A2 f2 A2 | fg fe d2 ef | "G"g2 B2 g2 B2 | "(Em)"ga gf "A7"e2 ag |\
"D"f2 A2 f2 A2 | fg fe d2 ef | "A7"g2 e2 cB A2 | "D"[d4F4] [d2F2] :|
|: B2 |\
"D"AB AG F2 A2 | d2 e2 f3 f | "A7"g2 e2 cB A2 | "D"dc de f2 d2 |\
"D"AB AG F2 A2 | d2 e2 f3 f | "A7"g2 e2 cB A2 | "D"d4 d2 :|
